icons/book.svg

<?xml version="1.0" encoding="UTF-8"?>
<svg xmlns="http://www.w3.org/2000/svg" xmlns:xlink="http://www.w3.org/1999/xlink" width="128px" height="128px" version="1.1">
<defs>
<linearGradient id="linear0" gradientUnits="userSpaceOnUse" x1="64" y1="246" x2="120" y2="246" gradientTransform="translate(0,-166)">
<stop style="stop-color:#bfbdba"/>
<stop offset="0.857143" style="stop-color:#bfbdba"/>
<stop offset="0.928571" style="stop-color:#dedcd9"/>
<stop offset="1" style="stop-color:#bfbdba"/>
</linearGradient>
<linearGradient id="linear1" gradientUnits="userSpaceOnUse" x1="64" y1="246" x2="120" y2="246" gradientTransform="matrix(-1,0,0,1,128,-166)">
<stop style="stop-color:#bfbdba"/>
<stop offset="0.857143" style="stop-color:#bfbdba"/>
<stop offset="0.928571" style="stop-color:#dedcd9"/>
<stop offset="1" style="stop-color:#bfbdba"/>
</linearGradient>
<filter id="alpha" filterUnits="objectBoundingBox">
  <feColorMatrix type="matrix" in="SourceGraphic" values="0 0 0 0 1 0 0 0 0 1 0 0 0 0 1 0 0 0 1 0"/>
</filter>
<mask id="mask0">
<rect width="128" height="128" style="opacity:0.1;" filter="url(#alpha)"/>
</mask>
<linearGradient id="linear2" gradientUnits="userSpaceOnUse" x1="320" y1="116" x2="416" y2="116" gradientTransform="matrix(-0.25,0,0,0.25,168,31)">
<stop style="stop-color:#f5f5f3"/>
<stop offset="0.5" style="stop-color:#ffffff"/>
<stop offset="1" style="stop-color:#deded9"/>
</linearGradient>
<linearGradient id="linear3" gradientUnits="userSpaceOnUse" x1="320" y1="116" x2="416" y2="116" gradientTransform="matrix(0.25,0,0,0.25,-40,31)">
<stop style="stop-color:#f5f5f3"/>
<stop offset="0.5" style="stop-color:#f5f5f3"/>
<stop offset="1" style="stop-color:#cccac7"/>
</linearGradient>
<linearGradient id="linear4" gradientUnits="userSpaceOnUse" x1="59.091709" y1="216.780304" x2="46.28891" y2="168.999603" gradientTransform="translate(-11.862876,-168.9809)">
<stop style="stop-color:#00cccc"/>
<stop offset="1" style="stop-color:#30e3d1"/>
</linearGradient>
</defs>
<path style="fill:#1ca8a8" d="M 120,94.355469 V 101 c 0,4.43359 -3.56641,8 -8,8 H 90 c -9.683594,0 -18.023438,5.73828 -21.816406,14 H 59.816406 C 56.023438,114.73828 47.683594,109 38,109 H 16 c -4.433594,0 -8,-3.56641 -8,-8 v -6.644531 z"/>
<path style="fill:url(#linear0)" d="M 66.328125,54.019531 C 66.167969,55.007812 66.054688,56 66,57 h -2 v 63 h 4.183594 C 71.976562,111.73828 80.316406,106 90,106 h 22 c 4.43359,0 8,-3.56641 8,-8 V 62.355469 c 0,-4.433594 -3.56641,-8 -8,-8 z"/>
<path style="fill:url(#linear1)" d="M 61.675781,54.019531 C 61.832031,55.007812 61.945312,56 62,57 h 2 v 63 H 59.816406 C 56.023438,111.73828 47.683594,106 38,106 H 16 c -4.433594,0 -8,-3.56641 -8,-8 V 62.355469 c 0,-4.433594 3.566406,-8 8,-8 z"/>
<g mask="url(#mask0)">
<path d="M 120,91.65625 C 119.91797,95.74609 116.62109,99 112.50781,99 h -0.5 v 1 h 0.5 c 3.2461,0 6.0586,-1.8125 7.49219,-4.48047 z M 88,99 l 24,1 v -1 z"/>
<path d="M 120,94.65625 C 119.91797,98.74609 116.62109,102 112.50781,102 h -0.5 v 1 h 0.5 c 3.22266,0 6.02344,-1.78906 7.46485,-4.42578 C 119.98438,98.38281 120,98.19141 120,98 Z M 94,102 l 18,1 v -1 z"/>
</g>
<path style="fill:url(#linear2)" d="m 112,21 c 4.43359,0 8,3.566406 8,8 v 59 c 0,4.433594 -3.56641,8 -8,8 H 88 C 74.746094,96 64,106.74609 64,120 V 47 C 64,33.746094 74.746094,21 88,21 z"/>
<path style="fill:url(#linear3)" d="m 16,21 c -4.433594,0 -8,3.566406 -8,8 v 59 c 0,4.433594 3.566406,8 8,8 h 24 c 13.253906,0 24,10.74609 24,24 V 47 C 64,33.746094 53.253906,21 40,21 z"/>
<path style="fill:#00cccc" d="m 102,32 v 6 H 90 c -4.375,0.183594 -8.464844,1.296875 -12,3.28125 V 35.730469 C 81.53125,33.394531 85.625,32 90,32 z"/>
<path style="fill:#dedcd9" d="m 108,44 v 4 H 90 c -4.375,0.183594 -8.464844,1.296875 -12,3.28125 V 47.730469 C 81.53125,45.394531 85.625,44 90,44 z"/>
<path style="fill:#dedcd9" d="m 108,52 v 4 H 90 c -4.375,0.183594 -8.464844,1.296875 -12,3.28125 V 55.730469 C 81.53125,53.394531 85.625,52 90,52 z"/>
<path style="fill:#dedcd9" d="m 108,60 v 4 H 90 c -4.375,0.183594 -8.464844,1.296875 -12,3.28125 V 63.730469 C 81.53125,61.394531 85.625,60 90,60 z"/>
<path style="fill:#dedcd9" d="M 36,76 H 20 v 4 h 16 z"/>
<path style="fill:#dedcd9" d="m 20,44 v 4 h 20 c 3.574219,0.148438 6.953125,0.929688 10,2.292969 V 46.558594 C 46.953125,44.941406 43.574219,44 40,44 z"/>
<path style="fill:#dedcd9" d="m 20,52 v 4 h 20 c 3.574219,0.148438 6.953125,0.929688 10,2.292969 V 54.558594 C 46.953125,52.941406 43.574219,52 40,52 z"/>
<path style="fill:#dedcd9" d="m 20,60 v 4 h 20 c 3.574219,0.148438 6.953125,0.929688 10,2.292969 V 62.558594 C 46.953125,60.941406 43.574219,60 40,60 z"/>
<path style="fill:#dedcd9" d="m 20,36 v 4 h 20 c 3.574219,0.148438 6.953125,0.929688 10,2.292969 V 38.558594 C 46.953125,36.941406 43.574219,36 40,36 z"/>
<path style="fill:#dedcd9" d="m 20,68 v 4 h 20 c 3.574219,0.148438 6.953125,0.929688 10,2.292969 V 70.558594 C 46.953125,68.941406 43.574219,68 40,68 z"/>
<path style="fill:#dedcd9" d="m 100,68 v 4 H 90 c -4.375,0.183594 -8.464844,1.296875 -12,3.28125 V 71.730469 C 81.53125,69.394531 85.625,68 90,68 z"/>
<path style="fill:url(#linear4)" d="m 34.433594,0 c 0,0 -8.230469,20.4375 -8.207032,31.1875 0.01563,8 1.101563,17.027344 6.210938,23.183594 3.925781,4.726562 16.628906,7.964844 16.628906,7.964844 l 3.863282,-1.035157 c 0,0 9.378906,-9.15625 10.417968,-15.210937 C 64.695312,38.203125 61.121094,29.84375 57.136719,22.90625 51.78125,13.582031 34.433594,0 34.433594,0 z"/>
<path style="fill:#1ca8a8" d="M 53.214844,77.820312 C 42.441406,37.617188 42.726562,33.128906 37.457031,11.003906 c 6.53125,21.703125 8.847657,25.578125 19.621094,65.78125 z"/>
<path style="fill:#1ca8a8" d="m 42.089844,30.066406 c 3.617187,-6.261718 4.914062,-7.515625 6.195312,-9.597656 -1.160156,2.152344 -1.636718,3.878906 -5.253906,10.140625 z"/>
<path style="fill:#1ca8a8" d="m 44.597656,39.785156 c 5.019532,-8.695312 6.820313,-10.4375 8.597656,-13.332031 -1.605468,2.992187 -2.269531,5.390625 -7.292968,14.085937 z"/>
<path style="fill:#1ca8a8" d="m 47.359375,50.210938 c 5.3125,-9.199219 7.214844,-11.042969 9.097656,-14.101563 -1.703125,3.164063 -2.40625,5.699219 -7.714843,14.898437 z"/>
<path style="fill:#1ca8a8" d="m 42.835938,29.867188 c -6.265626,-3.613282 -8.011719,-4.050782 -10.164063,-5.214844 2.078125,1.285156 3.355469,2.542968 9.617187,6.15625 z"/>
<path style="fill:#1ca8a8" d="m 45.523438,39.539062 c -8.695313,-5.023437 -11.125,-5.632812 -14.113282,-7.246093 2.890625,1.785156 4.660156,3.53125 13.359375,8.550781 z"/>
<path style="fill:#1ca8a8" d="m 48.34375,49.945312 c -9.199219,-5.3125 -11.769531,-5.957031 -14.929688,-7.664062 3.054688,1.890625 4.933594,3.734375 14.132813,9.046875 z"/>
</svg>

<svg width="128px" height="128px" version="1.1" xmlns="http://www.w3.org/2000/svg">
<defs>
<linearGradient id="f" x1="64" x2="120" y1="246" y2="246" gradientTransform="translate(0,-166)" gradientUnits="userSpaceOnUse">
<stop stop-color="#bfbdba" offset="0"/>
<stop stop-color="#bfbdba" offset=".85714"/>
<stop stop-color="#dedcd9" offset=".92857"/>
<stop stop-color="#bfbdba" offset="1"/>
</linearGradient>
<linearGradient id="e" x1="64" x2="120" y1="246" y2="246" gradientTransform="matrix(-1,0,0,1,128,-166)" gradientUnits="userSpaceOnUse">
<stop stop-color="#bfbdba" offset="0"/>
<stop stop-color="#bfbdba" offset=".85714"/>
<stop stop-color="#dedcd9" offset=".92857"/>
<stop stop-color="#bfbdba" offset="1"/>
</linearGradient>
<filter id="g">
<feColorMatrix in="SourceGraphic" values="0 0 0 0 1 0 0 0 0 1 0 0 0 0 1 0 0 0 1 0"/>
</filter>
<mask id="a">
<rect width="128" height="128" filter="url(#g)" opacity=".1"/>
</mask>
<linearGradient id="d" x1="320" x2="416" y1="116" y2="116" gradientTransform="matrix(-.25 0 0 .25 168 31)" gradientUnits="userSpaceOnUse">
<stop stop-color="#f5f5f3" offset="0"/>
<stop stop-color="#fff" offset=".5"/>
<stop stop-color="#deded9" offset="1"/>
</linearGradient>
<linearGradient id="c" x1="320" x2="416" y1="116" y2="116" gradientTransform="matrix(.25 0 0 .25 -40 31)" gradientUnits="userSpaceOnUse">
<stop stop-color="#f5f5f3" offset="0"/>
<stop stop-color="#f5f5f3" offset=".5"/>
<stop stop-color="#cccac7" offset="1"/>
</linearGradient>
<linearGradient id="b" x1="59.092" x2="46.289" y1="216.78" y2="169" gradientTransform="translate(-11.863 -168.98)" gradientUnits="userSpaceOnUse">
<stop stop-color="#0cc" offset="0"/>
<stop stop-color="#30e3d1" offset="1"/>
</linearGradient>
</defs>
<path d="m120 94.355v6.6445c0 4.4336-3.5664 8-8 8h-22c-9.6836 0-18.023 5.7383-21.816 14h-8.3672c-3.793-8.2617-12.133-14-21.816-14h-22c-4.4336 0-8-3.5664-8-8v-6.6445z" fill="#1ca8a8"/>
<path d="m66.328 54.02c-0.16016 0.98828-0.27344 1.9805-0.32812 2.9805h-2v63h4.1836c3.793-8.2617 12.133-14 21.816-14h22c4.4336 0 8-3.5664 8-8v-35.645c0-4.4336-3.5664-8-8-8z" fill="url(#f)"/>
<path d="m61.676 54.02c0.15625 0.98828 0.26953 1.9805 0.32422 2.9805h2v63h-4.1836c-3.793-8.2617-12.133-14-21.816-14h-22c-4.4336 0-8-3.5664-8-8v-35.645c0-4.4336 3.5664-8 8-8z" fill="url(#e)"/>
<g mask="url(#a)">
<path d="m120 91.656c-0.08203 4.0898-3.3789 7.3438-7.4922 7.3438h-0.5v1h0.5c3.2461 0 6.0586-1.8125 7.4922-4.4805zm-32 7.3438 24 1v-1z"/>
<path d="m120 94.656c-0.08203 4.0898-3.3789 7.3438-7.4922 7.3438h-0.5v1h0.5c3.2227 0 6.0234-1.7891 7.4648-4.4258 0.01172-0.19141 0.02734-0.38281 0.02734-0.57422zm-26 7.3438 18 1v-1z"/>
</g>
<path d="m112 21c4.4336 0 8 3.5664 8 8v59c0 4.4336-3.5664 8-8 8h-24c-13.254 0-24 10.746-24 24v-73c0-13.254 10.746-26 24-26z" fill="url(#d)"/>
<path d="m16 21c-4.4336 0-8 3.5664-8 8v59c0 4.4336 3.5664 8 8 8h24c13.254 0 24 10.746 24 24v-73c0-13.254-10.746-26-24-26z" fill="url(#c)"/>
<path d="m102 32v6h-12c-4.375 0.18359-8.4648 1.2969-12 3.2812v-5.5508c3.5312-2.3359 7.625-3.7305 12-3.7305z" fill="#0cc"/>
<path d="m108 44v4h-18c-4.375 0.18359-8.4648 1.2969-12 3.2812v-3.5508c3.5312-2.3359 7.625-3.7305 12-3.7305z" fill="#dedcd9"/>
<path d="m108 52v4h-18c-4.375 0.18359-8.4648 1.2969-12 3.2812v-3.5508c3.5312-2.3359 7.625-3.7305 12-3.7305z" fill="#dedcd9"/>
<path d="m108 60v4h-18c-4.375 0.18359-8.4648 1.2969-12 3.2812v-3.5508c3.5312-2.3359 7.625-3.7305 12-3.7305z" fill="#dedcd9"/>
<path d="m36 76h-16v4h16z" fill="#dedcd9"/>
<path d="m20 44v4h20c3.5742 0.14844 6.9531 0.92969 10 2.293v-3.7344c-3.0469-1.6172-6.4258-2.5586-10-2.5586z" fill="#dedcd9"/>
<path d="m20 52v4h20c3.5742 0.14844 6.9531 0.92969 10 2.293v-3.7344c-3.0469-1.6172-6.4258-2.5586-10-2.5586z" fill="#dedcd9"/>
<path d="m20 60v4h20c3.5742 0.14844 6.9531 0.92969 10 2.293v-3.7344c-3.0469-1.6172-6.4258-2.5586-10-2.5586z" fill="#dedcd9"/>
<path d="m20 36v4h20c3.5742 0.14844 6.9531 0.92969 10 2.293v-3.7344c-3.0469-1.6172-6.4258-2.5586-10-2.5586z" fill="#dedcd9"/>
<path d="m20 68v4h20c3.5742 0.14844 6.9531 0.92969 10 2.293v-3.7344c-3.0469-1.6172-6.4258-2.5586-10-2.5586z" fill="#dedcd9"/>
<path d="m100 68v4h-10c-4.375 0.18359-8.4648 1.2969-12 3.2812v-3.5508c3.5312-2.3359 7.625-3.7305 12-3.7305z" fill="#dedcd9"/>
<path d="m34.434 0s-8.2305 20.438-8.207 31.188c0.01563 8 1.1016 17.027 6.2109 23.184 3.9258 4.7266 16.629 7.9648 16.629 7.9648l3.8633-1.0352s9.3789-9.1562 10.418-15.211c1.3477-7.8867-2.2266-16.246-6.2109-23.184-5.3555-9.3242-22.703-22.906-22.703-22.906z" fill="url(#b)"/>
<path d="m53.215 77.82c-10.773-40.203-10.488-44.691-15.758-66.816 6.5312 21.703 8.8477 25.578 19.621 65.781z" fill="#1ca8a8"/>
<path d="m42.09 30.066c3.6172-6.2617 4.9141-7.5156 6.1953-9.5977-1.1602 2.1523-1.6367 3.8789-5.2539 10.141z" fill="#1ca8a8"/>
<path d="m44.598 39.785c5.0195-8.6953 6.8203-10.438 8.5977-13.332-1.6055 2.9922-2.2695 5.3906-7.293 14.086z" fill="#1ca8a8"/>
<path d="m47.359 50.211c5.3125-9.1992 7.2148-11.043 9.0977-14.102-1.7031 3.1641-2.4062 5.6992-7.7148 14.898z" fill="#1ca8a8"/>
<path d="m42.836 29.867c-6.2656-3.6133-8.0117-4.0508-10.164-5.2148 2.0781 1.2852 3.3555 2.543 9.6172 6.1562z" fill="#1ca8a8"/>
<path d="m45.523 39.539c-8.6953-5.0234-11.125-5.6328-14.113-7.2461 2.8906 1.7852 4.6602 3.5312 13.359 8.5508z" fill="#1ca8a8"/>
<path d="m48.344 49.945c-9.1992-5.3125-11.77-5.957-14.93-7.6641 3.0547 1.8906 4.9336 3.7344 14.133 9.0469z" fill="#1ca8a8"/>
</svg>
